boxicons/svg/regular/bx-ball.svg

<svg xmlns="http://www.w3.org/2000/svg" width="24" height="24" viewBox="0 0 24 24"><path fill="none" d="M7.775,19.396c2.471,0,5.954-0.539,8.518-3.103c3.77-3.77,3.171-9.568,2.854-11.445 c-0.625-0.108-1.686-0.25-2.955-0.25c-2.464,0-5.938,0.538-8.495,3.099c-3.773,3.78-3.166,9.578-2.847,11.454 C5.472,19.257,6.52,19.396,7.775,19.396z M8.708,10.292l1.793,1.794l1.585-1.586l-1.794-1.793l1.414-1.414L13.5,9.086l1.793-1.793 l1.414,1.414L14.914,10.5l1.793,1.792l-1.414,1.414L13.5,11.914L11.914,13.5l1.792,1.793l-1.415,1.414L10.5,14.915l-1.792,1.792 l-1.414-1.414L9.086,13.5l-1.793-1.794L8.708,10.292z"/><path d="M3.757,20.97c0.069,0.018,1.726,0.426,4.018,0.426c2.849,0,6.884-0.641,9.932-3.688c5.335-5.335,3.351-13.6,3.264-13.949 C20.881,3.4,20.603,3.12,20.244,3.03c-0.069-0.018-1.742-0.433-4.052-0.433c-2.842,0-6.869,0.64-9.91,3.687 c-5.339,5.349-3.34,13.61-3.252,13.96C3.12,20.602,3.399,20.881,3.757,20.97z M7.698,7.696c2.557-2.561,6.031-3.099,8.495-3.099 c1.27,0,2.33,0.142,2.955,0.25c0.316,1.877,0.915,7.676-2.854,11.445c-2.564,2.563-6.047,3.103-8.518,3.103 c-1.255,0-2.303-0.139-2.924-0.245C4.532,17.274,3.925,11.477,7.698,7.696z"/><path d="M7.293 15.293L8.707 16.707 10.5 14.915 12.291 16.707 13.706 15.293 11.914 13.5 13.5 11.914 15.293 13.706 16.707 12.292 14.914 10.5 16.707 8.707 15.293 7.293 13.5 9.086 11.706 7.293 10.292 8.707 12.086 10.5 10.5 12.086 8.708 10.292 7.292 11.706 9.086 13.5z"/></svg>

<svg xmlns="http://www.w3.org/2000/svg" width="24" height="24" viewBox="0 0 24 24"><path d="M3.76 21a17.68 17.68 0 0 0 4 .43 13.89 13.89 0 0 0 9.93-3.69C23 12.37 21.06 4.11 21 3.76a1 1 0 0 0-.76-.76 17.91 17.91 0 0 0-4-.43 13.82 13.82 0 0 0-9.96 3.71C.94 11.63 2.94 19.89 3 20.24a1 1 0 0 0 .76.76zM7.7 7.7a11.86 11.86 0 0 1 8.49-3.1 17.57 17.57 0 0 1 3 .25c.31 1.87.91 7.67-2.86 11.44a11.91 11.91 0 0 1-8.55 3.11 17.16 17.16 0 0 1-2.93-.25c-.32-1.88-.92-7.67 2.85-11.45z"/><path d="m7.29 15.29 1.42 1.42 1.79-1.79 1.79 1.79 1.42-1.42-1.8-1.79 1.59-1.59 1.79 1.8 1.42-1.42-1.8-1.79 1.8-1.79-1.42-1.42-1.79 1.8-1.79-1.8-1.42 1.42 1.8 1.79-1.59 1.59-1.79-1.8-1.42 1.42 1.8 1.79z"/></svg>
